X:1
T:Title
%%score { ( 1 4 ) | ( 2 3 ) }
L:1/8
M:6/8
K:Eb
V:1 treble nm="Grand Piano"
V:4 treble 
V:2 bass 
V:3 bass 
V:1
 z3 z2[Q:1/4=90] [EG]/[FA]/ | [GB]2 [GB] [Ge]2 [GB] | [Ac] [GB]2- [GB] z [GB] | %3
 [DFB]2 [DFA] [DF][EG][FA] |[M:5/8] [EG]-[EG]- [EG]3 |[M:1/8] [EG]/[FA]/ | %6
[M:3/4] [GB]2 [GB] [Ge]2 [GB] | [Ac] [GB]3 z [Gc] | [Fd]B c d2 c |[M:9/16] [DB]4- [DB]/ | %10
[M:3/8] A-[A-c][Ad] |[M:3/4] [Ge]2 [GB] [Ac]2 [GB] | [GB] G3 z E | [DF]2 [DF] [DB]2 [FA] | %14
[M:5/8] [EG]-[EG]- [EG]3 |[M:1/8] [EG]/[FA]/ |[M:3/4] [GB]2 [Ge] [Ge]2 [GB] |[M:7/8] c2 z z z z2 | %18
[M:3/4] [EGB][EG] [G,B,E] [B,EG]2 [A,DF] |[M:5/8] [G,E]-[G,E]- [G,E]3 |[M:1/8] [EG]/[FA]/ | %21
[M:3/4] [GB] [GB]3 z [Ge] | [GB] [GB]3 z [EG] | [DA]2 [DA][DF] G[EFA] |[M:5/8] [EAc] [EGB]3 z | %25
[M:1/8] G/A/ |[M:3/4] B2 [Ge] [Ge]2 B |[M:7/8] c2 e e3 [EAc] | %28
[M:3/4] [EGB][EG] [G,B,E] [B,EG]2 [A,DF] |[M:5/8] [G,E]-[G,E]- [G,E]3 |] %30
V:2
 z3 z2 [E,B,] | [E,E]2 [E,E] [E,B,]2 [E,E] | [E,E] [E,E]2- [E,E] z [E,E] | %3
 B,,2 B,, [B,,B,]2 [B,,B,] |[M:5/8] [E,B,]-[E,B,]- [E,B,]3 |[M:1/8] [E,B,] | %6
[M:3/4] [E,E]2 [E,E] [E,B,]2 [E,E] | [E,E] [E,E]3 z [E,B,] | z D [F,B,E] [F,B,F]2 [F,=A,E] | %9
[M:9/16] [B,,B,]4- [B,,B,]/ |[M:3/8] [B,,B,]3 |[M:3/4] [E,B,]2 [E,E] [E,E]2 [E,E] | %12
 [E,E] [E,B,E]3 z [E,G,] | [B,,B,]2 [B,,B,] [B,,B,]2 [D,B,] |[M:5/8] [E,B,]-[E,B,]- [E,B,]3 | %15
[M:1/8] [E,B,] |[M:3/4] [E,E]2 [E,B,] [E,B,]2 [E,E] | %17
[M:7/8][K:treble] [A,E]2 [A,C] [A,CA]3[K:bass] A,, |[M:3/4] z B, B,, B,,2 B,, |[M:5/8] E,-E,- E,3 | %20
[M:1/8] [E,B,] |[M:3/4] [E,E] [E,E]3 z [E,B,] | [E,E] [E,E]3 z [E,B,] | [B,,B,]2 .[B,,B,]2 EB,, | %24
[M:5/8] E, E,3 z |[M:1/8][K:treble] E/F/ |[M:3/4] G2[K:bass] [E,B,] [E,B,]2[K:treble] G | %27
[M:7/8] A2 [A,CA] [A,CA]3[K:bass] A,, |[M:3/4] z B, B,, B,,2 B,, |[M:5/8] E,-E,- E,3 |] %30
V:3
 x6 | x6 | x6 | x6 |[M:5/8] x5 |[M:1/8] x |[M:3/4] x6 | x6 | [F,B,]2 z2 z2 |[M:9/16] x9/2 | %10
[M:3/8] x3 |[M:3/4] x6 | x6 | x6 |[M:5/8] x5 |[M:1/8] x |[M:3/4] x6 | %17
[M:7/8][K:treble] x6[K:bass] x |[M:3/4] B,,2 z2 z2 |[M:5/8] x5 |[M:1/8] x |[M:3/4] x6 | x6 | %23
 z2 z .[B,,B,]3 |[M:5/8] x5 |[M:1/8][K:treble] x |[M:3/4] x2[K:bass] x3[K:treble] x | %27
[M:7/8] x6[K:bass] x |[M:3/4] B,,2 z2 z2 |[M:5/8] x5 |] %30
V:4
 x6 | x6 | x6 | x6 |[M:5/8] x5 |[M:1/8] x |[M:3/4] x6 | x6 | x6 |[M:9/16] x9/2 |[M:3/8] B z z | %11
[M:3/4] x6 | x6 | x6 |[M:5/8] x5 |[M:1/8] x |[M:3/4] x6 |[M:7/8] A2- [Ae] e3 [EAc] |[M:3/4] x6 | %19
[M:5/8] x5 |[M:1/8] x |[M:3/4] x6 | x6 | x6 |[M:5/8] x5 |[M:1/8] x |[M:3/4] x6 |[M:7/8] x7 | %28
[M:3/4] x6 |[M:5/8] x5 |] %30

